X: 19
T:O 'Tis Love,2nd part. JNu.14
M:6/8
Q:100
S:James Nuttall MS,c1830,Rossendale,East Lancs.
R:Air
O:England
A:East Lancashire
Z:vmp.Chris Partington
K:D
"secundo"zFAzFA|zF.AzF.A|zF.AzFA|zEAzEA|!
zEAzEA|zEAzEA|zGAzGA|E3||!
z2z|zFAzFA|zEAzEA|zGAzGA|zFAzFA|!
zFAzFA|zEAzEA|CGA CGA|F3F2||!
z|zEGzEG|zEFzDF|zCEzCE|zDFzDF|!
zEGzEG|zDFzDF|zCEzCE|F2FF3|]
